logos/html5.svg

<svg xmlns="http://www.w3.org/2000/svg" viewBox="0 0 512 512">
 <path fill="#e44d26" d="m107.644 470.877l-33.011-370.257h362.734l-33.046 370.199-148.543 41.181"/>
 <path fill="#f16529" d="m256 480.523l120.03-33.277 28.24-316.352h-148.27"/>
 <path fill="#ebebeb" d="m256 268.217h-60.09l-4.15-46.501h64.24v-45.411h-.157-113.711l1.087 12.183 11.161 125.139h101.62m0 72.526l-.199.053-50.574-13.656-3.233-36.217h-24.575-21.01l6.362 71.301 93.02 25.823.209-.058"/>
 <path d="m108.382 0h23.077v22.8h21.11v-22.8h23.078v69.044h-23.077v-23.12h-21.11v23.12h-23.077v-69.044zm97.612 22.896h-20.316v-22.896h63.72v22.896h-20.325v46.148h-23.078v-46.148zm53.517-22.896h24.063l14.802 24.26 14.787-24.26h24.072v69.044h-22.982v-34.222l-15.877 24.549h-.397l-15.888-24.549v34.222h-22.58v-69.044zm89.209 0h23.084v46.222h32.453v22.822h-55.537v-69.044z"/>
 <path fill="#fff" d="m255.843 268.217v45.41h55.918l-5.271 58.894-50.647 13.67v47.244l93.094-25.801.683-7.672 10.671-119.551 1.108-12.194h-12.237m-93.319-91.912v45.411h109.688l.911-10.207 2.069-23.021 1.086-12.183"/>
</svg>

<svg xmlns="http://www.w3.org/2000/svg" viewBox="0 0 512 512">
 <path fill="#e44d26" d="M107.644 470.877L74.633 100.62 437.367 100.62 404.321 470.819 255.778 512"/>
 <path fill="#F16529" d="M256 480.523L376.03 447.246 404.27 130.894 256 130.894"/>
 <path fill="#ebebeb" d="M256 268.217L195.91 268.217 191.76 221.716 256 221.716 256 176.305 255.843 176.305 142.132 176.305 143.219 188.488 154.38 313.627 256 313.627M256 386.153L255.801 386.206 205.227 372.55 201.994 336.333 177.419 336.333 156.409 336.333 162.771 407.634 255.791 433.457 256 433.399"/>
 <path d="m108.382 0h23.077v22.8h21.11v-22.8h23.078v69.044h-23.077v-23.12h-21.11v23.12h-23.077v-69.044zM205.994 22.896h-20.316v-22.896h63.72v22.896h-20.325v46.148h-23.078v-46.148zM259.511 0h24.063l14.802 24.26 14.787-24.26h24.072v69.044h-22.982v-34.222l-15.877 24.549h-.397l-15.888-24.549v34.222h-22.58v-69.044zM348.72 0h23.084v46.222h32.453v22.822h-55.537v-69.044z"/>
 <path fill="#fff" d="M255.843 268.217L255.843 313.627 311.761 313.627 306.49 372.521 255.843 386.191 255.843 433.435 348.937 407.634 349.62 399.962 360.291 280.411 361.399 268.217 349.162 268.217M255.843 176.305L255.843 204.509 255.843 221.605 255.843 221.716 365.385 221.716 365.385 221.716 365.531 221.716 366.442 211.509 368.511 188.488 369.597 176.305"/>
</svg>
